;FLAVOR:Marlin
;TIME:2366
;Filament used: 1.15223m
;Layer height: 0.15
;MINX:-15
;MINY:-15
;MINZ:0.3
;MAXX:15
;MAXY:15
;MAXZ:19.95
;Generated with Cura_SteamEngine 4.11.0
M104 S200
M105
M109 S200
M82 ;absolute extrusion mode
G28 ;Home
G1 Z15.0 F6000 ;Move the platform down 15mm
;Prime the extruder
G92 E0
G1 F200 E3
G92 E0
G92 E0
G92 E0
G1 F30000 E-4.1
;LAYER_COUNT:132
;LAYER:0
M107
G1 F600 Z0.5
G0 F3600 X15 Y-10 Z0.5
;TYPE:SKIRT
G1 F600 Z0.3
G1 F30000 E0
G1 F900 X15 Y10 E0.9978
G1 X14.96 Y10.631 E1.02935
G1 X14.841 Y11.252 E1.06089
G1 X14.644 Y11.852 E1.0924
G1 X14.373 Y12.424 E1.12398
G1 X14.033 Y12.956 E1.15548
G1 X13.627 Y13.441 E1.18703
G1 X13.164 Y13.871 E1.21856
G1 X12.65 Y14.24 E1.25012
G1 X12.094 Y14.54 E1.28164
G1 X11.505 Y14.768 E1.31315
G1 X10.891 Y14.92 E1.34471
G1 X10 Y15 E1.38934
G1 X-10 Y15 E2.38715
G1 X-10.631 Y14.96 E2.41869
G1 X-11.252 Y14.841 E2.45024
G1 X-11.852 Y14.644 E2.48174
G1 X-12.424 Y14.373 E2.51332
G1 X-12.956 Y14.033 E2.54482
G1 X-13.441 Y13.627 E2.57637
G1 X-13.871 Y13.164 E2.6079
G1 X-14.24 Y12.65 E2.63947
G1 X-14.54 Y12.094 E2.67099
G1 X-14.768 Y11.505 E2.7025
G1 X-14.92 Y10.891 E2.73405
G1 X-15 Y10 E2.77868
G1 X-15 Y-10 E3.77649
G1 X-14.96 Y-10.631 E3.80803
G1 X-14.841 Y-11.252 E3.83958
G1 X-14.644 Y-11.852 E3.87108
G1 X-14.373 Y-12.424 E3.90266
G1 X-14.033 Y-12.956 E3.93416
G1 X-13.627 Y-13.441 E3.96572
G1 X-13.164 Y-13.871 E3.99724
G1 X-12.65 Y-14.24 E4.02881
G1 X-12.094 Y-14.54 E4.06033
G1 X-11.505 Y-14.768 E4.09184
G1 X-10.891 Y-14.92 E4.1234
G1 X-10 Y-15 E4.16803
G1 X10 Y-15 E5.16583
G1 X10.631 Y-14.96 E5.19737
G1 X11.252 Y-14.841 E5.22892
G1 X11.852 Y-14.644 E5.26043
G1 X12.424 Y-14.373 E5.292
G1 X12.956 Y-14.033 E5.3235
G1 X13.441 Y-13.627 E5.35506
G1 X13.871 Y-13.164 E5.38658
G1 X14.24 Y-12.65 E5.41815
G1 X14.54 Y-12.094 E5.44967
G1 X14.768 Y-11.505 E5.48118
G1 X14.92 Y-10.891 E5.51274
G1 X15 Y-10 E5.55737
G0 F3600 X14.6 Y-10
G1 F900 X14.6 Y10 E6.55517
G1 X14.56 Y10.605 E6.58542
G1 X14.441 Y11.199 E6.61565
G1 X14.245 Y11.773 E6.64591
G1 X13.974 Y12.316 E6.67618
G1 X13.635 Y12.819 E6.70644
G1 X13.233 Y13.272 E6.73666
G1 X12.775 Y13.669 E6.7669
G1 X12.268 Y14.002 E6.79716
G1 X11.722 Y14.266 E6.82742
G1 X11.146 Y14.455 E6.85766
G1 X10.55 Y14.567 E6.88792
G1 X10 Y14.6 E6.91541
G1 X-10 Y14.6 E7.91321
G1 X-10.605 Y14.56 E7.94346
G1 X-11.199 Y14.441 E7.97368
G1 X-11.773 Y14.245 E8.00395
G1 X-12.316 Y13.974 E8.03422
G1 X-12.819 Y13.635 E8.06448
G1 X-13.272 Y13.233 E8.0947
G1 X-13.669 Y12.775 E8.12494
G1 X-14.002 Y12.268 E8.1552
G1 X-14.266 Y11.722 E8.18546
G1 X-14.455 Y11.146 E8.2157
G1 X-14.567 Y10.55 E8.24596
G1 X-14.6 Y10 E8.27345
G1 X-14.6 Y-10 E9.27125
G1 X-14.56 Y-10.605 E9.3015
G1 X-14.441 Y-11.199 E9.33172
G1 X-14.245 Y-11.773 E9.36198
G1 X-13.974 Y-12.316 E9.39226
G1 X-13.635 Y-12.819 E9.42252
G1 X-13.233 Y-13.272 E9.45274
G1 X-12.775 Y-13.669 E9.48298
G1 X-12.268 Y-14.002 E9.51324
G1 X-11.722 Y-14.266 E9.5435
G1 X-11.146 Y-14.455 E9.57374
G1 X-10.55 Y-14.567 E9.604
G1 X-10 Y-14.6 E9.63149
G1 X10 Y-14.6 E10.62929
G1 X10.605 Y-14.56 E10.65954
G1 X11.199 Y-14.441 E10.68976
G1 X11.773 Y-14.245 E10.72002
G1 X12.316 Y-13.974 E10.7503
G1 X12.819 Y-13.635 E10.78056
G1 X13.272 Y-13.233 E10.81078
G1 X13.669 Y-12.775 E10.84102
G1 X14.002 Y-12.268 E10.87128
G1 X14.266 Y-11.722 E10.90154
G1 X14.455 Y-11.146 E10.93178
G1 X14.567 Y-10.55 E10.96204
G1 X14.6 Y-10 E10.98953
G0 F3600 X14.2 Y-10
G1 F900 X14.2 Y10 E11.98733
G1 X14.16 Y10.578 E12.01623
G1 X14.041 Y11.145 E12.04514
G1 X13.845 Y11.69 E12.07403
G1 X13.576 Y12.203 E12.10293
G1 X13.239 Y12.674 E12.13183
G1 X12.84 Y13.094 E12.16073
G1 X12.387 Y13.456 E12.18966
G1 X11.889 Y13.751 E12.21854
G1 X11.355 Y13.976 E12.24745
G1 X10.795 Y14.124 E12.27634
G1 X10 Y14.2 E12.31619
G1 X-10 Y14.2 E13.31399
G1 X-10.578 Y14.16 E13.3429
G1 X-11.145 Y14.041 E13.3718
G1 X-11.69 Y13.845 E13.4007
G1 X-12.203 Y13.576 E13.42959
G1 X-12.674 Y13.239 E13.45849
G1 X-13.094 Y12.84 E13.48739
G1 X-13.456 Y12.387 E13.51632
G1 X-13.751 Y11.889 E13.5452
G1 X-13.976 Y11.355 E13.57411
G1 X-14.124 Y10.795 E13.603
G1 X-14.2 Y10 E13.64285
G1 X-14.2 Y-10 E14.64065
G1 X-14.16 Y-10.578 E14.66956
G1 X-14.041 Y-11.145 E14.69846
G1 X-13.845 Y-11.69 E14.72736
G1 X-13.576 Y-12.203 E14.75626
G1 X-13.239 Y-12.674 E14.78515
G1 X-12.84 Y-13.094 E14.81405
G1 X-12.387 Y-13.456 E14.84298
G1 X-11.889 Y-13.751 E14.87186
G1 X-11.355 Y-13.976 E14.90077
G1 X-10.795 Y-14.124 E14.92967
G1 X-10 Y-14.2 E14.96951
G1 X10 Y-14.2 E15.96731
G1 X10.578 Y-14.16 E15.99622
G1 X11.145 Y-14.041 E16.02512
G1 X11.69 Y-13.845 E16.05402
G1 X12.203 Y-13.576 E16.08292
G1 X12.674 Y-13.239 E16.11181
G1 X13.094 Y-12.84 E16.14071
G1 X13.456 Y-12.387 E16.16964
G1 X13.751 Y-11.889 E16.19852
G1 X13.976 Y-11.355 E16.22743
G1 X14.124 Y-10.795 E16.25633
G1 X14.2 Y-10 E16.29617
G0 F3600 X13.8 Y-10
G1 F900 X13.8 Y10 E17.29398
G1 X13.76 Y10.55 E17.32149
G1 X13.641 Y11.088 E17.34898
G1 X13.445 Y11.603 E17.37647
G1 X13.177 Y12.084 E17.40394
G1 X12.843 Y12.522 E17.43142
G1 X12.448 Y12.906 E17.4589
G1 X12.002 Y13.23 E17.48641
G1 X11.514 Y13.485 E17.51388
G1 X10.994 Y13.668 E17.54138
G1 X10.453 Y13.773 E17.56887
G1 X10 Y13.8 E17.59151
G1 X-10 Y13.8 E18.58932
G1 X-10.55 Y13.76 E18.61683
G1 X-11.088 Y13.641 E18.64432
G1 X-11.603 Y13.445 E18.67181
G1 X-12.084 Y13.177 E18.69928
G1 X-12.522 Y12.843 E18.72676
G1 X-12.906 Y12.448 E18.75425
G1 X-13.23 Y12.002 E18.78175
G1 X-13.485 Y11.514 E18.80922
G1 X-13.668 Y10.994 E18.83672
G1 X-13.773 Y10.453 E18.86421
G1 X-13.8 Y10 E18.88686
G1 X-13.8 Y-10 E19.88466
G1 X-13.76 Y-10.55 E19.91217
G1 X-13.641 Y-11.088 E19.93966
G1 X-13.445 Y-11.603 E19.96715
G1 X-13.177 Y-12.084 E19.99462
G1 X-12.843 Y-12.522 E20.0221
G1 X-12.448 Y-12.906 E20.04959
G1 X-12.002 Y-13.23 E20.07709
G1 X-11.514 Y-13.485 E20.10456
G1 X-10.994 Y-13.668 E20.13206
G1 X-10.453 Y-13.773 E20.15956
G1 X-10 Y-13.8 E20.1822
G1 X10 Y-13.8 E21.18
G1 X10.55 Y-13.76 E21.20751
G1 X11.088 Y-13.641 E21.235
G1 X11.603 Y-13.445 E21.26249
G1 X12.084 Y-13.177 E21.28996
G1 X12.522 Y-12.843 E21.31745
G1 X12.906 Y-12.448 E21.34493
G1 X13.23 Y-12.002 E21.37243
G1 X13.485 Y-11.514 E21.3999
G1 X13.668 Y-10.994 E21.4274
G1 X13.773 Y-10.453 E21.4549
G1 X13.8 Y-10 E21.47754
G0 F3600 X13.4 Y-10
G1 F900 X13.4 Y10 E22.47534
G1 X13.36 Y10.52 E22.50136
G1 X13.241 Y11.027 E22.52734
G1 X13.046 Y11.51 E22.55333
G1 X12.78 Y11.958 E22.57932
G1 X12.448 Y12.36 E22.60534
G1 X12.058 Y12.706 E22.63135
G1 X11.62 Y12.989 E22.65736
G1 X11.145 Y13.202 E22.68333
G1 X10.642 Y13.339 E22.70934
G1 X10 Y13.4 E22.74152
G1 X-10 Y13.4 E23.73932
G1 X-10.52 Y13.36 E23.76534
G1 X-11.027 Y13.241 E23.79132
G1 X-11.51 Y13.046 E23.81731
G1 X-11.958 Y12.78 E23.8433
G1 X-12.36 Y12.448 E23.86931
G1 X-12.706 Y12.058 E23.89533
G1 X-12.989 Y11.62 E23.92134
G1 X-13.202 Y11.145 E23.94731
G1 X-13.339 Y10.642 E23.97332
G1 X-13.4 Y10 E24.0055
G1 X-13.4 Y-10 E25.0033
G1 X-13.36 Y-10.52 E25.02932
G1 X-13.241 Y-11.027 E25.0553
G1 X-13.046 Y-11.51 E25.08129
G1 X-12.78 Y-11.958 E25.10728
G1 X-12.448 Y-12.36 E25.13329
G1 X-12.058 Y-12.706 E25.1593
G1 X-11.62 Y-12.989 E25.18532
G1 X-11.145 Y-13.202 E25.21129
G1 X-10.642 Y-13.339 E25.2373
G1 X-10 Y-13.4 E25.26947
G1 X10 Y-13.4 E26.26728
G1 X10.52 Y-13.36 E26.2933
G1 X11.027 Y-13.241 E26.31928
G1 X11.51 Y-13.046 E26.34527
G1 X11.958 Y-12.78 E26.37126
G1 X12.36 Y-12.448 E26.39727
G1 X12.706 Y-12.058 E26.42328
G1 X12.989 Y-11.62 E26.4493
G1 X13.202 Y-11.145 E26.47527
G1 X13.339 Y-10.642 E26.50128
G1 X13.4 Y-10 E26.53345
G0 F3600 X13 Y-10
G1 F900 X13 Y10 E27.53126
G1 X12.96 Y10.488 E27.55568
G1 X12.841 Y10.963 E27.58011
G1 X12.647 Y11.412 E27.60452
G1 X12.382 Y11.824 E27.62896
G1 X12.054 Y12.187 E27.65336
G1 X11.671 Y12.492 E27.67779
G1 X11.243 Y12.73 E27.70222
G1 X10.783 Y12.896 E27.72662
G1 X10 Y13 E27.76603
G1 X-10 Y13 E28.76383
G1 X-10.488 Y12.96 E28.78826
G1 X-10.963 Y12.841 E28.81269
G1 X-11.412 Y12.647 E28.83709
G1 X-11.824 Y12.382 E28.86153
G1 X-12.187 Y12.054 E28.88594
G1 X-12.492 Y11.671 E28.91037
G1 X-12.73 Y11.243 E28.9348
G1 X-12.896 Y10.783 E28.9592
G1 X-13 Y10 E28.9986
G1 X-13 Y-10 E29.99641
G1 X-12.96 Y-10.488 E30.02084
G1 X-12.841 Y-10.963 E30.04527
G1 X-12.647 Y-11.412 E30.06967
G1 X-12.382 Y-11.824 E30.09411
G1 X-12.054 Y-12.187 E30.11852
G1 X-11.671 Y-12.492 E30.14294
G1 X-11.243 Y-12.73 E30.16738
G1 X-10.783 Y-12.896 E30.19177
G1 X-10 Y-13 E30.23118
G1 X10 Y-13 E31.22899
G1 X10.488 Y-12.96 E31.25341
G1 X10.963 Y-12.841 E31.27784
G1 X11.412 Y-12.647 E31.30225
G1 X11.824 Y-12.382 E31.32669
G1 X12.187 Y-12.054 E31.35109
G1 X12.492 Y-11.671 E31.37552
G1 X12.73 Y-11.243 E31.39995
G1 X12.896 Y-10.783 E31.42435
G1 X13 Y-10 E31.46376
G0 F3600 X12.6 Y-10
G1 F900 X12.6 Y10 E32.46156
G1 X12.56 Y10.454 E32.4843
G1 X12.442 Y10.894 E32.50703
G1 X12.248 Y11.306 E32.52975
G1 X11.985 Y11.679 E32.55252
G1 X11.662 Y12 E32.57523
G1 X11.287 Y12.259 E32.59797
G1 X10.873 Y12.449 E32.6207
G1 X10.432 Y12.564 E32.64344
G1 X10 Y12.6 E32.66506
G1 X-10 Y12.6 E33.66287
G1 X-10.454 Y12.56 E33.6856
G1 X-10.894 Y12.442 E33.70833
G1 X-11.306 Y12.248 E33.73105
G1 X-11.679 Y11.985 E33.75382
G1 X-12 Y11.662 E33.77654
G1 X-12.259 Y11.287 E33.79928
G1 X-12.449 Y10.873 E33.822
G1 X-12.564 Y10.432 E33.84474
G1 X-12.6 Y10 E33.86637
G1 X-12.6 Y-10 E34.86417
G1 X-12.56 Y-10.454 E34.88691
G1 X-12.442 Y-10.894 E34.90964
G1 X-12.248 Y-11.306 E34.93236
G1 X-11.985 Y-11.679 E34.95513
G1 X-11.662 Y-12 E34.97785
G1 X-11.287 Y-12.259 E35.00058
G1 X-10.873 Y-12.449 E35.02331
G1 X-10.432 Y-12.564 E35.04605
G1 X-10 Y-12.6 E35.06767
G1 X10 Y-12.6 E36.06548
G1 X10.454 Y-12.56 E36.08822
G1 X10.894 Y-12.442 E36.11094
G1 X11.306 Y-12.248 E36.13366
G1 X11.679 Y-11.985 E36.15643
G1 X12 Y-11.662 E36.17915
G1 X12.259 Y-11.287 E36.20189
G1 X12.449 Y-10.873 E36.22461
G1 X12.564 Y-10.432 E36.24735
G1 X12.6 Y-10 E36.26898
G0 F3600 X12.2 Y-10
G1 F900 X12.2 Y10 E37.26678
G1 X12.16 Y10.417 E37.28768
G1 X12.042 Y10.819 E37.30858
G1 X11.849 Y11.191 E37.32949
G1 X11.59 Y11.52 E37.35038
G1 X11.273 Y11.794 E37.37129
G1 X10.91 Y12.003 E37.39218
G1 X10.513 Y12.139 E37.41312
G1 X10 Y12.2 E37.43889
G1 X-10 Y12.2 E38.4367
G1 X-10.417 Y12.16 E38.4576
G1 X-10.819 Y12.042 E38.4785
G1 X-11.191 Y11.849 E38.49941
G1 X-11.52 Y11.59 E38.5203
G1 X-11.794 Y11.273 E38.5412
G1 X-12.003 Y10.91 E38.5621
G1 X-12.139 Y10.513 E38.58304
G1 X-12.2 Y10 E38.60881
G1 X-12.2 Y-10 E39.60661
G1 X-12.16 Y-10.417 E39.62751
G1 X-12.042 Y-10.819 E39.64842
G1 X-11.849 Y-11.191 E39.66932
G1 X-11.59 Y-11.52 E39.69021
G1 X-11.273 Y-11.794 E39.71112
G1 X-10.91 Y-12.003 E39.73202
G1 X-10.513 Y-12.139 E39.75295
G1 X-10 Y-12.2 E39.77873
G1 X10 Y-12.2 E40.77653
G1 X10.417 Y-12.16 E40.79743
G1 X10.819 Y-12.042 E40.81833
G1 X11.191 Y-11.849 E40.83924
G1 X11.52 Y-11.59 E40.86013
G1 X11.794 Y-11.273 E40.88103
G1 X12.003 Y-10.91 E40.90193
G1 X12.139 Y-10.513 E40.92287
G1 X12.2 Y-10 E40.94864
G0 F3600 X11.8 Y-10
G1 F900 X11.8 Y10 E41.94645
G1 X11.76 Y10.377 E41.96536
G1 X11.642 Y10.737 E41.98426
G1 X11.452 Y11.064 E42.00313
G1 X11.197 Y11.345 E42.02206
G1 X10.888 Y11.565 E42.04098
G1 X10.541 Y11.717 E42.05988
G1 X10 Y11.8 E42.08719
G1 X-10 Y11.8 E43.08499
G1 X-10.377 Y11.76 E43.10391
G1 X-10.737 Y11.642 E43.12281
G1 X-11.064 Y11.452 E43.14168
G1 X-11.345 Y11.197 E43.16061
G1 X-11.565 Y10.888 E43.17953
G1 X-11.717 Y10.541 E43.19843
G1 X-11.8 Y10 E43.22574
G1 X-11.8 Y-10 E44.22354
G1 X-11.76 Y-10.377 E44.24246
G1 X-11.642 Y-10.737 E44.26136
G1 X-11.452 Y-11.064 E44.28023
G1 X-11.197 Y-11.345 E44.29916
G1 X-10.888 Y-11.565 E44.31808
G1 X-10.541 Y-11.717 E44.33698
G1 X-10 Y-11.8 E44.36429
G1 X10 Y-11.8 E45.36209
G1 X10.377 Y-11.76 E45.38101
G1 X10.737 Y-11.642 E45.39991
G1 X11.064 Y-11.452 E45.41877
G1 X11.345 Y-11.197 E45.43771
G1 X11.565 Y-10.888 E45.45663
G1 X11.717 Y-10.541 E45.47553
G1 X11.8 Y-10 E45.50284
G0 F3600 X11.4 Y-10
G1 F900 X11.4 Y10 E46.50064
G1 X11.36 Y10.332 E46.51732
G1 X11.243 Y10.644 E46.53395
G1 X11.055 Y10.921 E46.55065
G1 X10.807 Y11.144 E46.56729
G1 X10.513 Y11.303 E46.58396
G1 X10 Y11.4 E46.61001
G1 X-10 Y11.4 E47.60782
G1 X-10.332 Y11.36 E47.6245
G1 X-10.644 Y11.243 E47.64112
G1 X-10.921 Y11.055 E47.65782
G1 X-11.144 Y10.807 E47.67446
G1 X-11.303 Y10.513 E47.69114
G1 X-11.4 Y10 E47.71719
G1 X-11.4 Y-10 E48.71499
G1 X-11.36 Y-10.332 E48.73167
G1 X-11.243 Y-10.644 E48.7483
G1 X-11.055 Y-10.921 E48.765
G1 X-10.807 Y-11.144 E48.78164
G1 X-10.513 Y-11.303 E48.79831
G1 X-10 Y-11.4 E48.82436
G1 X10 Y-11.4 E49.82217
G1 X10.332 Y-11.36 E49.83885
G1 X10.644 Y-11.243 E49.85547
G1 X10.921 Y-11.055 E49.87218
G1 X11.144 Y-10.807 E49.88881
G1 X11.303 Y-10.513 E49.90549
G1 X11.4 Y-10 E49.93154
G0 F3600 X11 Y-10
G1 F900 X11 Y10 E50.92934
G1 X10.96 Y10.279 E50.9434
G1 X10.844 Y10.536 E50.95747
G1 X10.661 Y10.751 E50.97156
G1 X10.425 Y10.905 E50.98562
G1 X10 Y11 E51.00734
G1 X-10 Y11 E52.00515
G1 X-10.279 Y10.96 E52.01921
G1 X-10.536 Y10.844 E52.03327
G1 X-10.751 Y10.661 E52.04736
G1 X-10.905 Y10.425 E52.06142
G1 X-11 Y10 E52.08315
G1 X-11 Y-10 E53.08095
G1 X-10.96 Y-10.279 E53.09501
G1 X-10.844 Y-10.536 E53.10908
G1 X-10.661 Y-10.751 E53.12317
G1 X-10.425 Y-10.905 E53.13722
G1 X-10 Y-11 E53.15895
G1 X10 Y-11 E54.15675
G1 X10.279 Y-10.96 E54.17082
G1 X10.536 Y-10.844 E54.18488
G1 X10.751 Y-10.661 E54.19897
G1 X10.905 Y-10.425 E54.21303
G1 X11 Y-10 E54.23476
G0 F3600 X10.6 Y-10
G1 F900 X10.6 Y10 E55.23256
G1 X10.56 Y10.215 E55.24347
G1 X10.447 Y10.401 E55.25433
G1 X10.274 Y10.534 E55.26521
G1 X10 Y10.6 E55.27928
G1 X-10 Y10.6 E56.27708
G1 X-10.215 Y10.56 E56.28799
G1 X-10.401 Y10.447 E56.29885
G1 X-10.534 Y10.274 E56.30973
G1 X-10.6 Y10 E56.3238
G1 X-10.6 Y-10 E57.3216
G1 X-10.56 Y-10.215 E57.33251
G1 X-10.447 Y-10.401 E57.34337
G1 X-10.274 Y-10.534 E57.35425
G1 X-10 Y-10.6 E57.36832
G1 X10 Y-10.6 E58.36612
G1 X10.215 Y-10.56 E58.37703
G1 X10.401 Y-10.447 E58.38789
G1 X10.534 Y-10.274 E58.39877
G1 X10.6 Y-10 E58.41284
G0 F3600 X10.2 Y-10
G1 F900 X10.2 Y10 E59.41064
G1 X10.161 Y10.119 E59.41689
G1 X10 Y10.2 E59.42588
G1 X-10 Y10.2 E60.42368
G1 X-10.119 Y10.161 E60.42993
G1 X-10.2 Y10 E60.43892
G1 X-10.2 Y-10 E61.43673
G1 X-10.161 Y-10.119 E61.44297
G1 X-10 Y-10.2 E61.45197
G1 X10 Y-10.2 E62.44977
G1 X10.119 Y-10.161 E62.45602
G1 X10.2 Y-10 E62.46501
G1 F30000 E58.36501
;MESH:CalibrationCube
G0 F3600 X9.386 Y-9.386
G0 X-9.33 Y9.33
G1 F30000 E62.46501
G0 F3600 X-9.8 Y9.8
;TYPE:WALL-OUTER
G1 F900 X-9.8 Y-9.8 E63.44286
G1 X9.8 Y-9.8 E64.4207
G1 X9.8 Y9.8 E65.39855
G1 X-9.8 Y9.8 E66.3764
G0 F3600 X-9.8 Y9.6
G0 X-9.4 Y9.4
;TYPE:WALL-INNER
G1 F900 X-9.4 Y-9.4 E67.31434
G1 X9.4 Y-9.4 E68.25227
G1 X9.4 Y9.4 E69.19021
G1 X-9.4 Y9.4 E70.12814
G0 F3600 X-9.01 Y9.01
;TYPE:SKIN
G1 F900 X-9.01 Y-9.01 E71.02717
G1 X9.01 Y-9.01 E71.92619
G1 X9.01 Y9.01 E72.82521
G1 X-9.01 Y9.01 E73.72423
G0 F3600 X-8.829 Y8.706
G1 F900 X-8.706 Y8.829 E73.73291
G0 F3600 X-8.14 Y8.829
G1 F900 X-8.829 Y8.14 E73.78152
G0 F3600 X-8.829 Y7.575
G1 F900 X-7.575 Y8.829 E73.87
G0 F3600 X-7.009 Y8.829
G1 F900 X-8.829 Y7.009 E73.99841
G0 F3600 X-8.829 Y6.443
G1 F900 X-6.443 Y8.829 E74.16675
G0 F3600 X-5.878 Y8.829
G1 F900 X-8.829 Y5.878 E74.37496
G0 F3600 X-8.829 Y5.312
G1 F900 X-5.312 Y8.829 E74.62311
G0 F3600 X-4.746 Y8.829
G1 F900 X-8.829 Y4.746 E74.91118
G0 F3600 X-8.829 Y4.181
G1 F900 X-4.181 Y8.829 E75.23912
G0 F3600 X-3.615 Y8.829
G1 F900 X-8.829 Y3.615 E75.607
G0 F3600 X-8.829 Y3.049
G1 F900 X-3.049 Y8.829 E76.01481
G0 F3600 X-2.484 Y8.829
G1 F900 X-8.829 Y2.484 E76.46249
G0 F3600 X-8.829 Y1.918
G1 F900 X-1.918 Y8.829 E76.95009
G0 F3600 X-1.352 Y8.829
G1 F900 X-8.829 Y1.352 E77.47764
G0 F3600 X-8.829 Y0.787
G1 F900 X-.787 Y8.829 E78.04504
G0 F3600 X-.221 Y8.829
G1 F900 X-8.829 Y0.221 E78.65238
G0 F3600 X-8.829 Y-.344
G1 F900 X0.344 Y8.829 E79.29959
G0 F3600 X0.91 Y8.829
G1 F900 X-8.829 Y-.91 E79.98673
G0 F3600 X-8.829 Y-1.475
G1 F900 X1.475 Y8.829 E80.71373
G0 F3600 X2.041 Y8.829
G1 F900 X-8.829 Y-2.041 E81.48067
G0 F3600 X-8.829 Y-2.607
G1 F900 X2.607 Y8.829 E82.28754
G0 F3600 X3.172 Y8.829
G1 F900 X-8.829 Y-3.172 E83.13427
G0 F3600 X-8.829 Y-3.738
G1 F900 X3.738 Y8.829 E84.02094
G0 F3600 X4.304 Y8.829
G1 F900 X-8.829 Y-4.304 E84.94755
G0 F3600 X-8.829 Y-4.869
