; generated by Slic3r 1.2.9 on 2016-10-05 at 10:52:43

; external perimeters extrusion width = 0.40mm
; perimeters extrusion width = 0.48mm
; infill extrusion width = 0.48mm
; solid infill extrusion width = 0.48mm
; top infill extrusion width = 0.48mm
; support material extrusion width = 0.40mm

M107
M190 S55 ; set bed temperature
M104 S205 ; set temperature
G28 ; home all axes
G1 Z10 F1000 ; lift nozzle
M109 S205 ; wait for temperature to be reached
G21 ; set units to millimeters
G90 ; use absolute coordinates
M82 ; use absolute distances for extrusion
G92 E0
G1 E-3.00000 F3600.00000
G92 E0
G1 Z0.400 F6000.000
G1 X0.000 Y18.142 F6000.000
G1 E3.00000 F3600.00000
G1 X-15.000 Y18.142 E4.78148 F1200.000
G1 X-17.513 Y17.745 E5.08366
G1 X-19.781 Y16.591 E5.38585
G1 X-21.582 Y14.794 E5.68804
G1 X-22.740 Y12.528 E5.99022
G1 X-23.142 Y10.000 E6.29427
G1 X-23.142 Y-10.000 E8.66957
G1 X-22.745 Y-12.513 E8.97176
G1 X-21.591 Y-14.781 E9.27394
G1 X-19.794 Y-16.582 E9.57613
G1 X-17.528 Y-17.740 E9.87831
G1 X-15.000 Y-18.142 E10.18236
G1 X15.000 Y-18.142 E13.74531
G1 X17.513 Y-17.745 E14.04750
G1 X19.781 Y-16.591 E14.34969 F1200.000
G1 X21.582 Y-14.794 E14.65187
G1 X22.740 Y-12.528 E14.95406
G1 X23.142 Y-10.000 E15.25810
G1 X23.142 Y10.000 E17.63340
G1 X22.745 Y12.513 E17.93559
G1 X21.591 Y14.781 E18.23778
G1 X19.794 Y16.582 E18.53996
G1 X17.528 Y17.740 E18.84215
G1 X15.000 Y18.142 E19.14619
G1 X0.060 Y18.142 E20.92054
G1 X0.000 Y17.428 F6000.000
G1 X-15.000 Y17.428 E22.70202 F1200.000
G1 X-17.397 Y17.031 E22.99057
G1 X-19.537 Y15.882 E23.27911
G1 X-21.192 Y14.103 E23.56766
G1 X-22.185 Y11.886 E23.85620
G1 X-22.428 Y10.000 E24.08199
G1 X-22.428 Y-10.000 E26.45729
G1 X-22.031 Y-12.397 E26.74584
G1 X-20.882 Y-14.537 E27.03438
G1 X-19.103 Y-16.192 E27.32293
G1 X-16.886 Y-17.185 E27.61147
G1 X-15.000 Y-17.428 E27.83726
G1 X15.000 Y-17.428 E31.40022
G1 X17.397 Y-17.031 E31.68876
G1 X19.537 Y-15.882 E31.97731 F1200.000
G1 X21.192 Y-14.103 E32.26585
G1 X22.185 Y-11.886 E32.55440
G1 X22.428 Y-10.000 E32.78019
G1 X22.428 Y10.000 E35.15549
G1 X22.031 Y12.397 E35.44403
G1 X20.882 Y14.537 E35.73258
G1 X19.103 Y16.192 E36.02112
G1 X16.886 Y17.185 E36.30967
G1 X15.000 Y17.428 E36.53546
G1 X0.060 Y17.428 E38.30981
G1 X0.000 Y16.714 F6000.000
G1 X-15.000 Y16.714 E40.09129 F1200.000
G1 X-17.275 Y16.317 E40.36551
G1 X-19.280 Y15.173 E40.63974
G1 X-20.780 Y13.417 E40.91396
G1 X-21.595 Y11.257 E41.18819
G1 X-21.714 Y10.000 E41.33815
G1 X-21.714 Y-10.000 E43.71346
G1 X-21.317 Y-12.275 E43.98768
G1 X-20.173 Y-14.280 E44.26191
G1 X-18.417 Y-15.780 E44.53613
G1 X-16.257 Y-16.595 E44.81036
G1 X-15.000 Y-16.714 E44.96032
G1 X15.000 Y-16.714 E48.52328
G1 X17.275 Y-16.317 E48.79750
G1 X19.280 Y-15.173 E49.07173 F1200.000
G1 X20.780 Y-13.417 E49.34595
G1 X21.595 Y-11.257 E49.62018
G1 X21.714 Y-10.000 E49.77014
G1 X21.714 Y10.000 E52.14545
G1 X21.317 Y12.275 E52.41967
G1 X20.173 Y14.280 E52.69390
G1 X18.417 Y15.780 E52.96812
G1 X16.257 Y16.595 E53.24235
G1 X15.000 Y16.714 E53.39231
G1 X0.060 Y16.714 E55.16667
G1 E52.16667 F3600.00000
G92 E0
G1 X-13.172 Y8.172 F6000.000
G1 E3.00000 F3600.00000
G1 X-13.172 Y-8.172 E4.94102 F1200.000
G1 X13.172 Y-8.172 E8.06970
G1 X13.172 Y8.172 E10.01072
G1 X-13.112 Y8.172 E13.13227
G1 X-13.886 Y8.886 F6000.000
G1 X-13.886 Y-8.886 E15.24293 F1200.000
G1 X13.886 Y-8.886 E18.54123
G1 X13.886 Y8.886 E20.65189
G1 X-13.826 Y8.886 E23.94307
G1 X-14.600 Y9.600 F6000.000
G1 X-14.600 Y-9.600 E26.22337 F1200.000
G1 X14.600 Y-9.600 E29.69131
G1 X14.600 Y9.600 E31.97160
G1 X-14.540 Y9.600 E35.43242
G1 X-14.400 Y9.254 F6000.000
G1 X-12.393 Y7.736 F6000.000
G1 X-12.736 Y7.393 E35.49130 F1200.000
G1 X-12.736 Y6.361 E35.61660
G1 X-11.361 Y7.736 E35.85269
G1 X-10.329 Y7.736 E35.97799
G1 X-12.736 Y5.329 E36.39129
G1 X-12.736 Y4.296 E36.51659
G1 X-9.296 Y7.736 E37.10710
G1 X-8.264 Y7.736 E37.23240
G1 X-12.736 Y3.264 E38.00011
G1 X-12.736 Y2.232 E38.12542
G1 X-7.232 Y7.736 E39.07034
G1 X-6.200 Y7.736 E39.19564
G1 X-12.736 Y1.200 E40.31777
G1 X-12.736 Y0.167 E40.44307
G1 X-5.167 Y7.736 E41.74241
G1 X-4.135 Y7.736 E41.86772
G1 X-12.736 Y-0.865 E43.34426
G1 X-12.736 Y-1.897 E43.46957
G1 X-3.103 Y7.736 E45.12332
G1 X-2.070 Y7.736 E45.24862
G1 X-12.736 Y-2.930 E47.07958
G1 X-12.736 Y-3.962 E47.20489
G1 X-1.038 Y7.736 E49.21306
G1 X-0.006 Y7.736 E49.33836
G1 X-12.736 Y-4.994 E51.52374
G1 X-12.736 Y-6.026 E51.64905
G1 X1.026 Y7.736 E54.01163
G1 X2.059 Y7.736 E54.13694
G1 X-12.736 Y-7.059 E56.67673
G1 X-12.381 Y-7.736 E56.76957
G1 X3.091 Y7.736 E59.42567
G1 X4.123 Y7.736 E59.55097
G1 X-11.349 Y-7.736 E62.20707
G1 X-10.317 Y-7.736 E62.33238
G1 X5.155 Y7.736 E64.98848
G1 X6.188 Y7.736 E65.11378
G1 X-9.285 Y-7.736 E67.76989
G1 X-8.252 Y-7.736 E67.89519
G1 X7.220 Y7.736 E70.55129
G1 X8.252 Y7.736 E70.67660
G1 X-7.220 Y-7.736 E73.33270
G1 X-6.188 Y-7.736 E73.45800
G1 X9.285 Y7.736 E76.11410
G1 X10.317 Y7.736 E76.23941
G1 X-5.155 Y-7.736 E78.89551
G1 X-4.123 Y-7.736 E79.02082
G1 X11.349 Y7.736 E81.67692
G1 X12.381 Y7.736 E81.80222
G1 X-3.091 Y-7.736 E84.45832
G1 X-2.059 Y-7.736 E84.58363
G1 X12.736 Y7.059 E87.12343
G1 X12.736 Y6.026 E87.24873
G1 X-1.026 Y-7.736 E89.61132
G1 X0.006 Y-7.736 E89.73662
G1 X12.736 Y4.994 E91.92200
G1 X12.736 Y3.962 E92.04731
G1 X1.038 Y-7.736 E94.05548
G1 X2.070 Y-7.736 E94.18079
G1 X12.736 Y2.930 E96.01175
G1 X12.736 Y1.897 E96.13706
G1 X3.103 Y-7.736 E97.79081
G1 X4.135 Y-7.736 E97.91612
G1 X12.736 Y0.865 E99.39266
G1 X12.736 Y-0.167 E99.51797
G1 X5.167 Y-7.736 E100.81731
G1 X6.200 Y-7.736 E100.94261
G1 X12.736 Y-1.200 E102.06474
G1 X12.736 Y-2.232 E102.19005
G1 X7.232 Y-7.736 E103.13497
G1 X8.264 Y-7.736 E103.26027
G1 X12.736 Y-3.264 E104.02799
G1 X12.736 Y-4.296 E104.15329
G1 X9.296 Y-7.736 E104.74380
G1 X10.329 Y-7.736 E104.86910
G1 X12.736 Y-5.329 E105.28240
G1 X12.736 Y-6.361 E105.40771
G1 X11.361 Y-7.736 E105.64380
G1 X12.393 Y-7.736 E105.76910
G1 X12.736 Y-7.393 E105.82798
M106 S183.6
M104 S200 ; set temperature
G1 E102.82798 F3600.00000
G92 E0
G1 Z0.700 F6000.000
G1 X-14.004 Y9.004 F6000.000
G1 E3.00000 F3600.00000
G1 X-14.004 Y-9.004 E3.94081 F1920.000
G1 X14.004 Y-9.004 E5.40407
G1 X14.004 Y9.004 E6.34489
G1 X-13.944 Y9.004 E7.80501
G1 X-14.423 Y9.423 F6000.000
G1 X-14.423 Y-9.423 E8.78960 F1920.000
G1 X14.423 Y-9.423 E10.29663
G1 X14.423 Y9.423 E11.28121
G1 X-14.363 Y9.423 E12.78510
G1 X-14.800 Y9.800 F6000.000
G1 X-14.800 Y-9.800 E13.60556 F1800.000
G1 X14.800 Y-9.800 E14.84463
G1 X14.800 Y9.800 E15.66509
G1 X-14.740 Y9.800 E16.90165
G1 X-14.600 Y9.454 F6000.000
G1 X-13.757 Y-8.539 F6000.000
G1 X-13.539 Y-8.757 E16.91779 F1920.000
G1 X-12.944 Y-8.757 E16.94897
G1 X-13.757 Y-7.944 E17.00920
G1 X-13.757 Y-7.350 E17.04038
G1 X-12.350 Y-8.757 E17.14470
G1 X-11.755 Y-8.757 E17.17588
G1 X-13.757 Y-6.755 E17.32429
G1 X-13.757 Y-6.161 E17.35546
G1 X-11.161 Y-8.757 E17.54797
G1 X-10.566 Y-8.757 E17.57914
G1 X-13.757 Y-5.566 E17.81573
G1 X-13.757 Y-4.972 E17.84691
G1 X-9.972 Y-8.757 E18.12759
G1 X-9.377 Y-8.757 E18.15877
G1 X-13.757 Y-4.377 E18.48354
G1 X-13.757 Y-3.783 E18.51471
G1 X-8.783 Y-8.757 E18.88357
G1 X-8.188 Y-8.757 E18.91475
G1 X-13.757 Y-3.188 E19.32770
G1 X-13.757 Y-2.593 E19.35888
G1 X-7.593 Y-8.757 E19.81591
G1 X-6.999 Y-8.757 E19.84709
G1 X-13.757 Y-1.999 E20.34822
G1 X-13.757 Y-1.404 E20.37939
G1 X-6.404 Y-8.757 E20.92461
G1 X-5.810 Y-8.757 E20.95579
G1 X-13.757 Y-0.810 E21.54510
G1 X-13.757 Y-0.215 E21.57627
G1 X-5.215 Y-8.757 E22.20967
G1 X-4.621 Y-8.757 E22.24084
G1 X-13.757 Y0.379 E22.91833
G1 X-13.757 Y0.974 E22.94951
G1 X-4.026 Y-8.757 E23.67108
G1 X-3.432 Y-8.757 E23.70226
G1 X-13.757 Y1.568 E24.46792
G1 X-13.757 Y2.163 E24.49910
G1 X-2.837 Y-8.757 E25.30885
G1 X-2.243 Y-8.757 E25.34003
G1 X-13.757 Y2.757 E26.19387
G1 X-13.757 Y3.352 E26.22505
G1 X-1.648 Y-8.757 E27.12298
G1 X-1.053 Y-8.757 E27.15416
G1 X-13.757 Y3.947 E28.09618
G1 X-13.757 Y4.541 E28.12736
G1 X-0.459 Y-8.757 E29.11347
G1 X0.136 Y-8.757 E29.14465
G1 X-13.757 Y5.136 E30.17485
G1 X-13.757 Y5.730 E30.20602
G1 X0.730 Y-8.757 E31.28031
G1 X1.325 Y-8.757 E31.31149
G1 X-13.757 Y6.325 E32.42987
G1 X-13.757 Y6.919 E32.46105
G1 X1.919 Y-8.757 E33.62352
G1 X2.514 Y-8.757 E33.65469
G1 X-13.757 Y7.514 E34.86125
G1 X-13.757 Y8.108 E34.89243
G1 X3.108 Y-8.757 E36.14308
G1 X3.703 Y-8.757 E36.17425
G1 X-13.757 Y8.703 E37.46899
G1 X-13.216 Y8.757 E37.49749
G1 X4.298 Y-8.757 E38.79621
G1 X4.892 Y-8.757 E38.82739
G1 X-12.621 Y8.757 E40.12611
G1 X-12.027 Y8.757 E40.15728
G1 X5.487 Y-8.757 E41.45600
G1 X6.081 Y-8.757 E41.48718
G1 X-11.432 Y8.757 E42.78590
G1 X-10.838 Y8.757 E42.81708
G1 X6.676 Y-8.757 E44.11580
G1 X7.270 Y-8.757 E44.14697
G1 X-10.243 Y8.757 E45.44569
G1 X-9.649 Y8.757 E45.47687
G1 X7.865 Y-8.757 E46.77559
G1 X8.459 Y-8.757 E46.80676
G1 X-9.054 Y8.757 E48.10548
G1 X-8.459 Y8.757 E48.13666
G1 X9.054 Y-8.757 E49.43538
G1 X9.649 Y-8.757 E49.46656
G1 X-7.865 Y8.757 E50.76528
G1 X-7.270 Y8.757 E50.79645
G1 X10.243 Y-8.757 E52.09517
G1 X10.838 Y-8.757 E52.12635
G1 X-6.676 Y8.757 E53.42507
G1 X-6.081 Y8.757 E53.45624
G1 X11.432 Y-8.757 E54.75496
G1 X12.027 Y-8.757 E54.78614
G1 X-5.487 Y8.757 E56.08486
G1 X-4.892 Y8.757 E56.11604
G1 X12.621 Y-8.757 E57.41476
G1 X13.216 Y-8.757 E57.44593
G1 X-4.298 Y8.757 E58.74465
G1 X-3.703 Y8.757 E58.77583
G1 X13.757 Y-8.703 E60.07057
G1 X13.757 Y-8.108 E60.10174
G1 X-3.108 Y8.757 E61.35239
G1 X-2.514 Y8.757 E61.38357
G1 X13.757 Y-7.514 E62.59013
G1 X13.757 Y-6.919 E62.62130
G1 X-1.919 Y8.757 E63.78377
G1 X-1.325 Y8.757 E63.81495
G1 X13.757 Y-6.325 E64.93333
G1 X13.757 Y-5.730 E64.96451
G1 X-0.730 Y8.757 E66.03880
G1 X-0.136 Y8.757 E66.06997
G1 X13.757 Y-5.136 E67.10018
G1 X13.757 Y-4.541 E67.13135
G1 X0.459 Y8.757 E68.11746
G1 X1.053 Y8.757 E68.14864
G1 X13.757 Y-3.947 E69.09066
G1 X13.757 Y-3.352 E69.12184
G1 X1.648 Y8.757 E70.01977
G1 X2.242 Y8.757 E70.05095
G1 X13.757 Y-2.757 E70.90479
G1 X13.757 Y-2.163 E70.93597
G1 X2.837 Y8.757 E71.74572
G1 X3.432 Y8.757 E71.77690
G1 X13.757 Y-1.568 E72.54257
G1 X13.757 Y-0.974 E72.57374
G1 X4.026 Y8.757 E73.29532
G1 X4.621 Y8.757 E73.32649
G1 X13.757 Y-0.379 E74.00398
G1 X13.757 Y0.215 E74.03516
G1 X5.215 Y8.757 E74.66855
G1 X5.810 Y8.757 E74.69973
G1 X13.757 Y0.810 E75.28904
G1 X13.757 Y1.404 E75.32021
G1 X6.404 Y8.757 E75.86543
G1 X6.999 Y8.757 E75.89661
G1 X13.757 Y1.999 E76.39774
G1 X13.757 Y2.593 E76.42891
G1 X7.593 Y8.757 E76.88595
G1 X8.188 Y8.757 E76.91713
G1 X13.757 Y3.188 E77.33008
G1 X13.757 Y3.783 E77.36125
G1 X8.783 Y8.757 E77.73011
G1 X9.377 Y8.757 E77.76129
G1 X13.757 Y4.377 E78.08606
G1 X13.757 Y4.972 E78.11724
G1 X9.972 Y8.757 E78.39792
G1 X10.566 Y8.757 E78.42909
G1 X13.757 Y5.566 E78.66569
G1 X13.757 Y6.161 E78.69686
G1 X11.161 Y8.757 E78.88936
G1 X11.755 Y8.757 E78.92054
G1 X13.757 Y6.755 E79.06895
G1 X13.757 Y7.350 E79.10013
G1 X12.350 Y8.757 E79.20445
G1 X12.944 Y8.757 E79.23563
G1 X13.757 Y7.944 E79.29586
G1 X13.757 Y8.539 E79.32704
G1 X13.539 Y8.757 E79.34318
G1 E76.34318 F3600.00000
G92 E0
G1 Z1.000 F6000.000
G1 X-14.004 Y9.004 F6000.000
G1 E3.00000 F3600.00000
G1 X-14.004 Y-9.004 E3.94081 F1920.000
G1 X14.004 Y-9.004 E5.40407
G1 X14.004 Y9.004 E6.34489
G1 X-13.944 Y9.004 E7.80501
G1 X-14.423 Y9.423 F6000.000
G1 X-14.423 Y-9.423 E8.78960 F1920.000
G1 X14.423 Y-9.423 E10.29663
G1 X14.423 Y9.423 E11.28121
G1 X-14.363 Y9.423 E12.78510
G1 X-14.800 Y9.800 F6000.000
G1 X-14.800 Y-9.800 E13.60556 F1800.000
G1 X14.800 Y-9.800 E14.84463
G1 X14.800 Y9.800 E15.66509
G1 X-14.740 Y9.800 E16.90165
G1 X-14.600 Y9.454 F6000.000
G1 X-13.539 Y8.757 F6000.000
G1 X-13.757 Y8.539 E16.91779 F1920.000
G1 X-13.757 Y7.944 E16.94897
G1 X-12.944 Y8.757 E17.00920
G1 X-12.350 Y8.757 E17.04038
G1 X-13.757 Y7.350 E17.14470
G1 X-13.757 Y6.755 E17.17588
G1 X-11.755 Y8.757 E17.32429
G1 X-11.161 Y8.757 E17.35546
G1 X-13.757 Y6.161 E17.54797
G1 X-13.757 Y5.566 E17.57914
G1 X-10.566 Y8.757 E17.81573
G1 X-9.972 Y8.757 E17.84691
G1 X-13.757 Y4.972 E18.12759
G1 X-13.757 Y4.377 E18.15877
G1 X-9.377 Y8.757 E18.48354
G1 X-8.783 Y8.757 E18.51471
G1 X-13.757 Y3.783 E18.88357
G1 X-13.757 Y3.188 E18.91475
G1 X-8.188 Y8.757 E19.32770
G1 X-7.593 Y8.757 E19.35888
G1 X-13.757 Y2.593 E19.81591
G1 X-13.757 Y1.999 E19.84709
G1 X-6.999 Y8.757 E20.34822
G1 X-6.404 Y8.757 E20.37939
G1 X-13.757 Y1.404 E20.92461
G1 X-13.757 Y0.810 E20.95579
G1 X-5.810 Y8.757 E21.54510
G1 X-5.215 Y8.757 E21.57627
G1 X-13.757 Y0.215 E22.20967
G1 X-13.757 Y-0.379 E22.24084
G1 X-4.621 Y8.757 E22.91833
G1 X-4.026 Y8.757 E22.94951
G1 X-13.757 Y-0.974 E23.67108
G1 X-13.757 Y-1.568 E23.70226
G1 X-3.432 Y8.757 E24.46792
G1 X-2.837 Y8.757 E24.49910
G1 X-13.757 Y-2.163 E25.30885
G1 X-13.757 Y-2.757 E25.34003
G1 X-2.243 Y8.757 E26.19387
G1 X-1.648 Y8.757 E26.22505
G1 X-13.757 Y-3.352 E27.12298
G1 X-13.757 Y-3.947 E27.15416
G1 X-1.053 Y8.757 E28.09618
G1 X-0.459 Y8.757 E28.12736
G1 X-13.757 Y-4.541 E29.11347
G1 X-13.757 Y-5.136 E29.14465
G1 X0.136 Y8.757 E30.17485
G1 X0.730 Y8.757 E30.20602
G1 X-13.757 Y-5.730 E31.28031
G1 X-13.757 Y-6.325 E31.31149
G1 X1.325 Y8.757 E32.42987
G1 X1.919 Y8.757 E32.46105
G1 X-13.757 Y-6.919 E33.62352
G1 X-13.757 Y-7.514 E33.65469
G1 X2.514 Y8.757 E34.86125
G1 X3.108 Y8.757 E34.89243
G1 X-13.757 Y-8.108 E36.14308
G1 X-13.757 Y-8.703 E36.17425
G1 X3.703 Y8.757 E37.46899
G1 X4.298 Y8.757 E37.50017
G1 X-13.216 Y-8.757 E38.79889
G1 X-12.621 Y-8.757 E38.83006
G1 X4.892 Y8.757 E40.12878
G1 X5.487 Y8.757 E40.15996
G1 X-12.027 Y-8.757 E41.45868
G1 X-11.432 Y-8.757 E41.48986
G1 X6.081 Y8.757 E42.78858
G1 X6.676 Y8.757 E42.81975
G1 X-10.838 Y-8.757 E44.11847
G1 X-10.243 Y-8.757 E44.14965
G1 X7.270 Y8.757 E45.44837
G1 X7.865 Y8.757 E45.47954
G1 X-9.649 Y-8.757 E46.77826
G1 X-9.054 Y-8.757 E46.80944
G1 X8.459 Y8.757 E48.10816
G1 X9.054 Y8.757 E48.13934
G1 X-8.459 Y-8.757 E49.43806
G1 X-7.865 Y-8.757 E49.46923
G1 X9.649 Y8.757 E50.76795
G1 X10.243 Y8.757 E50.79913
G1 X-7.270 Y-8.757 E52.09785
G1 X-6.676 Y-8.757 E52.12902
G1 X10.838 Y8.757 E53.42774
G1 X11.432 Y8.757 E53.45892
G1 X-6.081 Y-8.757 E54.75764
G1 X-5.487 Y-8.757 E54.78881
G1 X12.027 Y8.757 E56.08753
G1 X12.621 Y8.757 E56.11871
G1 X-4.892 Y-8.757 E57.41743
G1 X-4.298 Y-8.757 E57.44861
G1 X13.216 Y8.757 E58.74733
G1 X13.757 Y8.703 E58.77583
G1 X-3.703 Y-8.757 E60.07057
G1 X-3.108 Y-8.757 E60.10174
G1 X13.757 Y8.108 E61.35239
G1 X13.757 Y7.514 E61.38357
G1 X-2.514 Y-8.757 E62.59013
G1 X-1.919 Y-8.757 E62.62130
G1 X13.757 Y6.919 E63.78377
G1 X13.757 Y6.325 E63.81495
G1 X-1.325 Y-8.757 E64.93333
G1 X-0.730 Y-8.757 E64.96451
G1 X13.757 Y5.730 E66.03880
G1 X13.757 Y5.136 E66.06997
G1 X-0.136 Y-8.757 E67.10018
G1 X0.459 Y-8.757 E67.13135
G1 X13.757 Y4.541 E68.11746
G1 X13.757 Y3.947 E68.14864
G1 X1.053 Y-8.757 E69.09066
G1 X1.648 Y-8.757 E69.12184
G1 X13.757 Y3.352 E70.01977
G1 X13.757 Y2.757 E70.05095
G1 X2.243 Y-8.757 E70.90479
G1 X2.837 Y-8.757 E70.93597
G1 X13.757 Y2.163 E71.74572
G1 X13.757 Y1.568 E71.77690
G1 X3.432 Y-8.757 E72.54257
G1 X4.026 Y-8.757 E72.57374
G1 X13.757 Y0.974 E73.29532
G1 X13.757 Y0.379 E73.32649
G1 X4.621 Y-8.757 E74.00398
G1 X5.215 Y-8.757 E74.03516
G1 X13.757 Y-0.215 E74.66855
G1 X13.757 Y-0.810 E74.69973
G1 X5.810 Y-8.757 E75.28904
G1 X6.404 Y-8.757 E75.32021
G1 X13.757 Y-1.404 E75.86543
G1 X13.757 Y-1.999 E75.89661
G1 X6.999 Y-8.757 E76.39773
G1 X7.593 Y-8.757 E76.42891
G1 X13.757 Y-2.593 E76.88595
G1 X13.757 Y-3.188 E76.91713
G1 X8.188 Y-8.757 E77.33008
G1 X8.783 Y-8.757 E77.36125
G1 X13.757 Y-3.783 E77.73011
G1 X13.757 Y-4.377 E77.76129
G1 X9.377 Y-8.757 E78.08606
G1 X9.972 Y-8.757 E78.11724
G1 X13.757 Y-4.972 E78.39792
G1 X13.757 Y-5.566 E78.42909
G1 X10.566 Y-8.757 E78.66568
G1 X11.161 Y-8.757 E78.69686
G1 X13.757 Y-6.161 E78.88936
G1 X13.757 Y-6.755 E78.92054
G1 X11.755 Y-8.757 E79.06895
G1 X12.350 Y-8.757 E79.10013
G1 X13.757 Y-7.350 E79.20445
G1 X13.757 Y-7.944 E79.23563
G1 X12.944 Y-8.757 E79.29586
G1 X13.539 Y-8.757 E79.32704
G1 X13.757 Y-8.539 E79.34318
M106 S255
G1 E76.34318 F3600.00000
G92 E0
G1 Z1.300 F6000.000
G1 X-14.004 Y9.004 F6000.000
G1 E3.00000 F3600.00000
G1 X-14.004 Y-9.004 E3.94081 F972.261
G1 X14.004 Y-9.004 E5.40407
G1 X14.004 Y9.004 E6.34489
G1 X-13.944 Y9.004 E7.80501
